;FilamentType:PLA
;MachineType:ENTINA TINA2
;Extruder0Temperature:200
;BedTemperature:40
;InfillDensity:10
;FLAVOR:Marlin
;TIME:12081
;FilamentUsed: 8613.15
;Layer height: 0.15
;MINX:8.2
;MINY:8.2
;MINZ:0.3
;MAXX:91.8
;MAXY:111.8
;MAXZ:10.05
;Generated with Cura_SteamEngine 4.10.0
M82 ;absolute extrusion mode
;(**** start.gcode for TINA2****)
M104 S150
G28 Z
G28 X Y; Home extruder
G1 X55 Y55 F1000
G1 Z10 F200
G29
G1 Z15 F100
M107 ; Turn off fan
G90 ; Absolute positioning
M82 ; Extruder in absolute mode
M109 S215
G92 E0 ; Reset extruder position
G1 X90 Y6 Z0.27 F2000
G1 X20 Y6 Z0.27 E15 F1000 
G92 E0 ; Reset extruder position

M203 Z5
G92 E0
G92 E0
G1 F2100 E-3
;LAYER_COUNT:66
;LAYER:0
M107
;MESH:X68KFDPi-Bottom_Print.stl
G0 F3600 X11.462 Y13.035 Z0.3
;TYPE:WALL-INNER
G1 F2100 E0
G1 F1320 X12.001 Y13.106 E0.02577
G1 X12.552 Y13.031 E0.05212
G1 X13.057 Y12.82 E0.07806
G1 X13.489 Y12.489 E0.10386
G1 X13.824 Y12.052 E0.12995
G1 X14.034 Y11.544 E0.15601
G1 X14.105 Y11 E0.18201
G1 X14.034 Y10.456 E0.20801
G1 X13.823 Y9.947 E0.23413
G1 X13.484 Y9.507 E0.26045
G1 X13.137 Y9.242 E0.28115
G1 X13.051 Y9.176 E0.28628
G1 X12.538 Y8.965 E0.31257
G1 X12 Y8.895 E0.33829
G1 X11.456 Y8.966 E0.36429
G1 X10.947 Y9.177 E0.39041
G1 X10.863 Y9.242 E0.39544
G1 X10.507 Y9.516 E0.41673
G1 X10.176 Y9.949 E0.44256
G1 X9.965 Y10.462 E0.46885
G1 X9.895 Y11 E0.49457
G1 X9.966 Y11.544 E0.52057
G1 X10.177 Y12.053 E0.54668
G1 X10.516 Y12.493 E0.57301
G1 X10.949 Y12.824 E0.59884
G1 X11.462 Y13.035 E0.62513
G0 F3600 X11.437 Y13.131
G0 X84.437 Y13.131
G0 X84.462 Y13.035
G1 F1320 X85 Y13.105 E0.65085
G1 X85.544 Y13.034 E0.67685
G1 X86.053 Y12.823 E0.70296
G1 X86.493 Y12.484 E0.72929
G1 X86.823 Y12.053 E0.75502
G1 X87.034 Y11.544 E0.78113
G1 X87.105 Y11 E0.80713
G1 X87.034 Y10.454 E0.83323
G1 X86.819 Y9.942 E0.85955
G1 X86.484 Y9.507 E0.88557
G1 X86.137 Y9.242 E0.90626
G1 X86.051 Y9.176 E0.9114
G1 X85.538 Y8.965 E0.93769
G1 X84.999 Y8.894 E0.96346
G1 X84.448 Y8.969 E0.98982
G1 X83.942 Y9.181 E1.01582
G1 X83.863 Y9.242 E1.02055
G1 X83.508 Y9.516 E1.0418
G1 X83.177 Y9.947 E1.06756
G1 X82.966 Y10.456 E1.09367
G1 X82.895 Y11 E1.11968
G1 X82.966 Y11.546 E1.14577
G1 X83.181 Y12.058 E1.17209
G1 X83.516 Y12.493 E1.19811
G1 X83.949 Y12.824 E1.22394
G1 X84.462 Y13.035 E1.25024
G0 F3600 X84.437 Y13.131
G0 X82.854 Y109.001
G0 X82.931 Y109.562
G0 X83.147 Y110.078
G0 X83.488 Y110.521
G0 X84.437 Y111.131
G0 X84.462 Y111.035
G1 F1320 X85.001 Y111.106 E1.276
G1 X85.552 Y111.031 E1.30236
G1 X86.058 Y110.819 E1.32836
G1 X86.136 Y110.759 E1.33302
G1 X86.493 Y110.484 E1.35438
G1 X86.824 Y110.051 E1.38021
G1 X87.035 Y109.538 E1.4065
G1 X87.106 Y108.999 E1.43227
G1 X87.031 Y108.448 E1.45863
G1 X86.819 Y107.942 E1.48463
G1 X86.484 Y107.507 E1.51065
G1 X86.051 Y107.176 E1.53648
G1 X85.538 Y106.965 E1.56277
G1 X84.999 Y106.894 E1.58854
G1 X84.448 Y106.969 E1.6149
G1 X83.942 Y107.181 E1.6409
G1 X83.507 Y107.516 E1.66692
G1 X83.176 Y107.949 E1.69275
G1 X82.965 Y108.462 E1.71904
G1 X82.894 Y109.001 E1.74481
G1 X82.969 Y109.552 E1.77117
G1 X83.181 Y110.058 E1.79717
G1 X83.516 Y110.493 E1.82319
G1 X83.864 Y110.76 E1.84398
G1 X83.949 Y110.824 E1.84902
G1 X84.462 Y111.035 E1.87531
G0 F3600 X84.437 Y111.131
G0 X10.437 Y111.131
G0 X10.462 Y111.035
G1 F1320 X11 Y111.105 E1.90103
G1 X11.546 Y111.034 E1.92712
G1 X12.057 Y110.82 E1.95338
G1 X12.137 Y110.759 E1.95815
G1 X12.49 Y110.488 E1.97924
G1 X12.826 Y110.046 E2.00555
G1 X13.034 Y109.545 E2.03126
G1 X13.106 Y108.999 E2.05737
G1 X13.031 Y108.449 E2.08368
G1 X12.823 Y107.947 E2.10943
G1 X12.488 Y107.51 E2.13553
G1 X12.046 Y107.174 E2.16184
G1 X11.544 Y106.966 E2.1876
G1 X10.992 Y106.896 E2.21397
G1 X10.448 Y106.969 E2.23998
G1 X9.942 Y107.181 E2.26598
G1 X9.508 Y107.516 E2.29197
G1 X9.242 Y107.863 E2.31269
G1 X9.177 Y107.947 E2.31773
G1 X8.966 Y108.456 E2.34384
G1 X8.895 Y109 E2.36984
G1 X8.966 Y109.546 E2.39594
G1 X9.181 Y110.058 E2.42226
G1 X9.242 Y110.138 E2.42703
G1 X9.516 Y110.493 E2.44828
G1 X9.864 Y110.759 E2.46904
G1 X9.949 Y110.824 E2.47411
G1 X10.462 Y111.035 E2.5004
G0 F3600 X9.949 Y111.151
G1 F1320 X9.841 Y111.151 E2.50508
G1 X8.998 Y111.15 E2.54504
G1 X8.85 Y111.002 E2.55496
G1 X8.85 Y110.159 E2.59491
G1 X8.85 Y110.058 E2.59931
G1 X8.85 Y109.546 E2.61264
G1 X8.85 Y109 E2.61781
G1 X8.85 Y108.456 E2.62296
G1 X8.85 Y107.947 E2.6361
G1 X8.85 Y107.84 E2.64073
G1 X8.85 Y8.998 E7.32542
G1 X8.998 Y8.85 E7.33534
G1 X10.84 Y8.85 E7.42264
G1 X10.947 Y8.85 E7.42728
G1 X11.455 Y8.85 E7.44038
G1 X12 Y8.85 E7.44556
G1 X12.538 Y8.85 E7.45062
G1 X13.05 Y8.85 E7.46487
G1 X13.159 Y8.85 E7.46958
G1 X83.841 Y8.85 E10.81961
G1 X83.942 Y8.85 E10.82401
G1 X84.447 Y8.85 E10.83724
G1 X84.999 Y8.85 E10.84255
G1 X85.538 Y8.85 E10.84759
G1 X86.05 Y8.85 E10.86184
G1 X86.159 Y8.85 E10.86656
G1 X90.907 Y8.849 E11.09159
G1 X91.001 Y8.849 E11.09605
G1 X91.151 Y8.999 E11.1061
G1 X91.151 Y9.093 E11.11056
G1 X91.151 Y111.001 E15.94056
G1 X91.001 Y111.151 E15.95061
G1 X86.157 Y111.151 E16.1802
G1 X86.058 Y111.151 E16.18451
G1 X85.552 Y111.151 E16.19785
G1 X85.001 Y111.151 E16.2032
G1 X84.462 Y111.151 E16.2083
G1 X83.949 Y111.151 E16.22154
G1 X83.842 Y111.151 E16.22618
G1 X12.158 Y111.151 E19.62369
G1 X12.057 Y111.151 E19.62808
G1 X11.546 Y111.151 E19.64142
G1 X11 Y111.151 E19.64665
G1 X10.462 Y111.151 E19.65178
G1 X9.949 Y111.151 E19.66502
G0 F3600 X10.566 Y110.645
;TYPE:WALL-OUTER
G1 F1320 X11 Y110.702 E19.68577
G1 X11.441 Y110.644 E19.70685
G1 X11.855 Y110.471 E19.72811
G1 X12.204 Y110.203 E19.74897
G1 X12.476 Y109.845 E19.77028
G1 X12.644 Y109.44 E19.79106
G1 X12.702 Y109 E19.8121
G1 X12.642 Y108.554 E19.83342
G1 X12.474 Y108.149 E19.85421
G1 X12.203 Y107.796 E19.8753
G1 X11.845 Y107.524 E19.89661
G1 X11.44 Y107.356 E19.91739
G1 X10.993 Y107.299 E19.93875
G1 X10.554 Y107.358 E19.95974
G1 X10.145 Y107.53 E19.98077
G1 X9.793 Y107.801 E20.00182
G1 X9.526 Y108.149 E20.02261
G1 X9.356 Y108.56 E20.04369
G1 X9.298 Y109 E20.06473
G1 X9.356 Y109.441 E20.08581
G1 X9.53 Y109.855 E20.10709
G1 X9.801 Y110.207 E20.12815
G1 X10.15 Y110.474 E20.14898
G1 X10.566 Y110.645 E20.17029
G0 F3600 X10.764 Y110.671
G0 X10.7 Y111.166
G0 X84.5 Y111.14
G0 X84.566 Y110.645
G1 F1320 X85 Y110.702 E20.19104
G1 X85.446 Y110.642 E20.21237
G1 X85.855 Y110.47 E20.2334
G1 X86.207 Y110.199 E20.25445
G1 X86.474 Y109.85 E20.27528
G1 X86.645 Y109.434 E20.2966
G1 X86.702 Y109 E20.31734
G1 X86.642 Y108.554 E20.33867
G1 X86.47 Y108.145 E20.3597
G1 X86.199 Y107.793 E20.38076
G1 X85.85 Y107.526 E20.40158
G1 X85.434 Y107.355 E20.4229
G1 X85 Y107.298 E20.44365
G1 X84.554 Y107.358 E20.46497
G1 X84.145 Y107.53 E20.486
G1 X83.793 Y107.801 E20.50706
G1 X83.526 Y108.15 E20.52789
G1 X83.355 Y108.566 E20.5492
G1 X83.298 Y109 E20.56995
G1 X83.358 Y109.446 E20.59128
G1 X83.53 Y109.855 E20.61231
G1 X83.801 Y110.207 E20.63336
G1 X84.15 Y110.474 E20.65419
G1 X84.566 Y110.645 E20.67551
G0 F3600 X84.764 Y110.671
G0 X84.698 Y111.166
G0 X90.963 Y111.059
G0 X91.167 Y111.551
G1 F1320 X8.832 Y111.55 E24.57783
G1 X8.45 Y111.168 E24.60343
G1 X8.45 Y8.832 E29.45372
G1 X8.832 Y8.45 E29.47932
G1 X91.167 Y8.449 E33.38165
G1 X91.551 Y8.833 E33.40739
G1 X91.551 Y111.167 E38.25758
G1 X91.167 Y111.551 E38.28332
G0 F3600 X90.967 Y111.551
G0 X90.968 Y111.051
G0 X84.502 Y13.14
G0 X84.566 Y12.645
G1 F1320 X85 Y12.702 E38.30406
G1 X85.44 Y12.644 E38.3251
G1 X85.851 Y12.474 E38.34618
G1 X86.207 Y12.199 E38.3675
G1 X86.474 Y11.851 E38.38829
G1 X86.644 Y11.44 E38.40937
G1 X86.702 Y11 E38.4304
G1 X86.644 Y10.559 E38.45148
G1 X86.47 Y10.145 E38.47277
G1 X86.199 Y9.793 E38.49382
G1 X85.85 Y9.526 E38.51465
G1 X85.434 Y9.355 E38.53597
G1 X85 Y9.298 E38.55671
G1 X84.554 Y9.358 E38.57804
G1 X84.145 Y9.53 E38.59907
G1 X83.793 Y9.801 E38.62013
G1 X83.526 Y10.149 E38.64092
G1 X83.356 Y10.56 E38.662
G1 X83.298 Y11 E38.68303
G1 X83.356 Y11.441 E38.70411
G1 X83.53 Y11.855 E38.7254
G1 X83.801 Y12.207 E38.74645
G1 X84.15 Y12.474 E38.76728
G1 X84.566 Y12.645 E38.7886
G0 F3600 X84.764 Y12.671
G0 X84.7 Y13.166
G0 X11.5 Y13.14
G0 X11.566 Y12.645
G1 F1320 X12 Y12.702 E38.80934
G1 X12.446 Y12.642 E38.83067
G1 X12.855 Y12.471 E38.85168
G1 X13.204 Y12.204 E38.87251
G1 X13.474 Y11.851 E38.89357
G1 X13.644 Y11.44 E38.91465
G1 X13.702 Y11 E38.93569
G1 X13.644 Y10.56 E38.95672
G1 X13.474 Y10.149 E38.9778
G1 X13.199 Y9.793 E38.99912
G1 X12.85 Y9.526 E39.01995
G1 X12.434 Y9.355 E39.04127
G1 X12 Y9.298 E39.06201
G1 X11.56 Y9.356 E39.08305
G1 X11.149 Y9.526 E39.10413
G1 X10.793 Y9.801 E39.12545
G1 X10.526 Y10.15 E39.14627
G1 X10.355 Y10.566 E39.16759
G1 X10.298 Y11 E39.18834
G1 X10.356 Y11.44 E39.20937
G1 X10.526 Y11.851 E39.23045
G1 X10.801 Y12.207 E39.25177
G1 X11.15 Y12.474 E39.2726
G1 X11.566 Y12.645 E39.29392
G0 F3600 X11.764 Y12.671
G0 X11.361 Y13.415
;TYPE:SKIN
G1 F1320 X12.001 Y13.5 E39.32452
G1 X12.655 Y13.411 E39.3558
G1 X13.254 Y13.161 E39.38656
G1 X13.768 Y12.768 E39.41723
G1 X14.165 Y12.249 E39.4482
G1 X14.414 Y11.645 E39.47916
G1 X14.499 Y11 E39.51
G1 X14.414 Y10.354 E39.54088
G1 X14.164 Y9.75 E39.57186
G1 X13.77 Y9.24 E39.60241
G1 X83.229 Y9.239 E42.89446
G1 X82.836 Y9.75 E42.92502
G1 X82.586 Y10.354 E42.956
G1 X82.501 Y11 E42.98688
G1 X82.586 Y11.649 E43.0179
G1 X82.841 Y12.255 E43.04906
G1 X83.239 Y12.772 E43.07999
G1 X83.754 Y13.165 E43.11069
G1 X84.361 Y13.415 E43.14181
G1 X85 Y13.499 E43.17235
G1 X85.646 Y13.414 E43.20323
G1 X86.25 Y13.164 E43.23422
G1 X86.772 Y12.761 E43.26547
G1 X87.164 Y12.25 E43.296
G1 X87.414 Y11.646 E43.32698
G1 X87.499 Y11 E43.35786
G1 X87.414 Y10.351 E43.38888
G1 X87.159 Y9.745 E43.42004
G1 X86.769 Y9.239 E43.45032
G1 X90.761 Y9.239 E43.63953
G1 X90.761 Y110.761 E48.45123
G1 X86.772 Y110.761 E48.64029
G1 X87.165 Y110.246 E48.671
G1 X87.415 Y109.639 E48.70211
G1 X87.5 Y108.999 E48.73271
G1 X87.411 Y108.345 E48.76399
G1 X87.159 Y107.745 E48.79484
G1 X86.761 Y107.228 E48.82576
G1 X86.246 Y106.835 E48.85646
G1 X85.639 Y106.585 E48.88758
G1 X84.999 Y106.5 E48.91818
G1 X84.345 Y106.589 E48.94946
G1 X83.745 Y106.841 E48.9803
G1 X83.228 Y107.239 E49.01123
G1 X82.835 Y107.754 E49.04193
G1 X82.585 Y108.361 E49.07304
G1 X82.5 Y109.001 E49.10364
G1 X82.589 Y109.655 E49.13493
G1 X82.841 Y110.255 E49.16577
G1 X83.231 Y110.761 E49.19605
G1 X12.773 Y110.76 E52.53546
G1 X13.167 Y110.243 E52.56626
G1 X13.414 Y109.647 E52.59684
G1 X13.5 Y108.999 E52.62782
G1 X13.411 Y108.346 E52.65906
G1 X13.164 Y107.75 E52.68964
G1 X12.765 Y107.231 E52.72066
G1 X12.241 Y106.833 E52.75185
G1 X11.645 Y106.586 E52.78243
G1 X10.99 Y106.502 E52.81373
G1 X10.345 Y106.589 E52.84457
G1 X9.745 Y106.841 E52.87542
G1 X9.24 Y107.231 E52.90566
G1 X9.24 Y9.24 E57.55001
G1 X10.227 Y9.24 E57.59679
G1 X9.835 Y9.754 E57.62743
G1 X9.585 Y10.361 E57.65854
G1 X9.501 Y11 E57.68909
G1 X9.586 Y11.646 E57.71997
G1 X9.836 Y12.25 E57.75095
G1 X10.239 Y12.772 E57.78221
G1 X10.754 Y13.165 E57.81291
G1 X11.361 Y13.415 E57.84402
G0 F3600 X84.999 Y8.854
G0 X90.581 Y9.688
G1 F1320 X90.311 Y9.418 E57.86212
G0 F3600 X89.745 Y9.418
G1 F1320 X90.581 Y10.253 E57.91812
G0 F3600 X90.581 Y10.819
G1 F1320 X89.18 Y9.418 E58.01203
G0 F3600 X88.614 Y9.418
G1 F1320 X90.581 Y11.385 E58.14387
G0 F3600 X90.581 Y11.95
G1 F1320 X88.048 Y9.418 E58.31362
G0 F3600 X87.483 Y9.418
G1 F1320 X90.581 Y12.516 E58.52127
G0 F3600 X90.581 Y13.082
G1 F1320 X87.433 Y9.934 E58.73227
G1 X87.363 Y9.864
G0 F3600 X87.641 Y10.708
G1 F1320 X90.581 Y13.647 E58.9293
G0 F3600 X90.581 Y14.213
G1 F1320 X87.643 Y11.275 E59.12623
G0 F3600 X87.561 Y11.759
G1 F1320 X90.581 Y14.779 E59.32865
G0 F3600 X90.581 Y15.344
G1 F1320 X87.395 Y12.159 E59.54217
G0 F3600 X87.186 Y12.515
G1 F1320 X90.581 Y15.91 E59.76973
G0 F3600 X90.581 Y16.476
G1 F1320 X86.94 Y12.836 E60.01374
G0 F3600 X86.634 Y13.094
G1 F1320 X90.581 Y17.041 E60.2783
G0 F3600 X90.581 Y17.607
G1 F1320 X86.308 Y13.335 E60.56468
G0 F3600 X85.908 Y13.5
G1 F1320 X90.581 Y18.173 E60.8779
G0 F3600 X90.581 Y18.739
G1 F1320 X85.462 Y13.62 E61.22101
G0 F3600 X84.951 Y13.674
G1 F1320 X90.581 Y19.304 E61.59838
G0 F3600 X90.581 Y19.87
G1 F1320 X84.292 Y13.582 E62.01988
G1 X84.222 Y13.512
G0 F3600 X82.411 Y11.701
G1 F1320 X80.13 Y9.419 E62.1728
G0 F3600 X80.695 Y9.419
G1 F1320 X82.325 Y11.049 E62.28206
G0 F3600 X82.38 Y10.538
G1 F1320 X81.261 Y9.419 E62.35706
G0 F3600 X81.827 Y9.419
G1 F1320 X82.498 Y10.091 E62.40207
G0 F3600 X82.664 Y9.69
G1 F1320 X82.392 Y9.419 E62.42027
G0 F3600 X79.564 Y9.419
G1 F1320 X90.581 Y20.436 E63.15871
G0 F3600 X90.581 Y21.001
G1 F1320 X78.998 Y9.419 E63.93506
G0 F3600 X78.432 Y9.419
G1 F1320 X90.581 Y21.567 E64.74935
G0 F3600 X90.581 Y22.133
G1 F1320 X77.867 Y9.419 E65.60153
G0 F3600 X77.301 Y9.419
G1 F1320 X90.581 Y22.698 E66.49163
G0 F3600 X90.581 Y23.264
G1 F1320 X76.735 Y9.419 E67.41966
G0 F3600 X76.17 Y9.419
G1 F1320 X90.581 Y23.83 E68.38559
G0 F3600 X90.581 Y24.395
G1 F1320 X75.604 Y9.419 E69.38943
G0 F3600 X75.038 Y9.419
G1 F1320 X90.581 Y24.961 E70.43121
G0 F3600 X90.581 Y25.527
G1 F1320 X74.473 Y9.419 E71.51089
G0 F3600 X73.907 Y9.419
G1 F1320 X90.581 Y26.092 E72.62848
G0 F3600 X90.581 Y26.658
G1 F1320 X73.341 Y9.419 E73.784
G0 F3600 X72.776 Y9.419
G1 F1320 X90.581 Y27.224 E74.97743
G0 F3600 X90.581 Y27.79
G1 F1320 X72.21 Y9.419 E76.20879
G0 F3600 X71.644 Y9.419
G1 F1320 X90.581 Y28.355 E77.47806
G0 F3600 X90.581 Y28.921
G1 F1320 X71.079 Y9.419 E78.78523
G0 F3600 X70.513 Y9.419
G1 F1320 X90.581 Y29.487 E80.13034
G0 F3600 X90.581 Y30.052
G1 F1320 X69.947 Y9.419 E81.51336
G0 F3600 X69.382 Y9.419
G1 F1320 X90.581 Y30.618 E82.93428
G0 F3600 X90.581 Y31.184
G1 F1320 X68.816 Y9.419 E84.39313
G0 F3600 X68.25 Y9.419
G1 F1320 X90.581 Y31.749 E85.88989
G0 F3600 X90.581 Y32.315
G1 F1320 X67.684 Y9.419 E87.42459
G0 F3600 X67.119 Y9.419
G1 F1320 X90.581 Y32.881 E88.99719
G0 F3600 X90.581 Y33.446
G1 F1320 X66.553 Y9.419 E90.6077
G0 F3600 X65.987 Y9.419
G1 F1320 X90.581 Y34.012 E92.25614
G0 F3600 X90.581 Y34.578
G1 F1320 X65.422 Y9.419 E93.94249
G0 F3600 X64.856 Y9.419
G1 F1320 X90.581 Y35.143 E95.66674
G0 F3600 X90.581 Y35.709
G1 F1320 X64.29 Y9.419 E97.42893
G0 F3600 X63.725 Y9.419
G1 F1320 X90.581 Y36.275 E99.22903
G0 F3600 X90.581 Y36.84
G1 F1320 X63.159 Y9.419 E101.06703
G0 F3600 X62.593 Y9.419
G1 F1320 X90.581 Y37.406 E102.94296
G0 F3600 X90.581 Y37.972
G1 F1320 X62.028 Y9.419 E104.8568
G0 F3600 X61.462 Y9.419
G1 F1320 X90.581 Y38.538 E106.80858
G0 F3600 X90.581 Y39.103
G1 F1320 X60.896 Y9.419 E108.79826
G0 F3600 X60.331 Y9.419
G1 F1320 X90.581 Y39.669 E110.82585
G0 F3600 X90.581 Y40.235
G1 F1320 X59.765 Y9.419 E112.89137
G0 F3600 X59.199 Y9.419
G1 F1320 X90.581 Y40.8 E114.9948
G0 F3600 X90.581 Y41.366
G1 F1320 X58.634 Y9.419 E117.13613
G0 F3600 X58.068 Y9.419
G1 F1320 X90.581 Y41.932 E119.3154
G0 F3600 X90.581 Y42.497
G1 F1320 X57.502 Y9.419 E121.53257
G0 F3600 X56.936 Y9.419
G1 F1320 X90.581 Y43.063 E123.78768
G0 F3600 X90.581 Y43.629
G1 F1320 X56.371 Y9.419 E126.0807
G0 F3600 X55.805 Y9.419
G1 F1320 X90.581 Y44.194 E128.41162
G0 F3600 X90.581 Y44.76
G1 F1320 X55.239 Y9.419 E130.78048
G0 F3600 X54.674 Y9.419
G1 F1320 X90.581 Y45.326 E133.18724
G0 F3600 X90.581 Y45.891
G1 F1320 X54.108 Y9.419 E135.6319
G0 F3600 X53.542 Y9.419
G1 F1320 X90.581 Y46.457 E138.11451
G0 F3600 X90.581 Y47.023
G1 F1320 X52.977 Y9.419 E140.63501
G0 F3600 X52.411 Y9.419
G1 F1320 X90.581 Y47.588 E143.19342
G0 F3600 X90.581 Y48.154
G1 F1320 X51.845 Y9.419 E145.78977
G0 F3600 X51.28 Y9.419
G1 F1320 X90.581 Y48.72 E148.42403
G0 F3600 X90.581 Y49.286
G1 F1320 X50.714 Y9.419 E151.09622
G0 F3600 X50.148 Y9.419
G1 F1320 X90.581 Y49.851 E153.80631
G0 F3600 X90.581 Y50.417
G1 F1320 X49.583 Y9.419 E156.55431
