;FilamentType:PLA
;MachineType:ENTINA TINA2
;Extruder0Temperature:200
;BedTemperature:40
;InfillDensity:10
;FLAVOR:Marlin
;TIME:12492
;FilamentUsed: 8804.42
;Layer height: 0.15
;MINX:8.2
;MINY:8.2
;MINZ:0.3
;MAXX:91.8
;MAXY:111.8
;MAXZ:13.65
;Generated with Cura_SteamEngine 4.10.0
M82 ;absolute extrusion mode
;(**** start.gcode for TINA2****)
M104 S150
G28 Z
G28 X Y; Home extruder
G1 X55 Y55 F1000
G1 Z10 F200
G29
G1 Z15 F100
M107 ; Turn off fan
G90 ; Absolute positioning
M82 ; Extruder in absolute mode
M109 S215
G92 E0 ; Reset extruder position
G1 X90 Y6 Z0.27 F2000
G1 X20 Y6 Z0.27 E15 F1000 
G92 E0 ; Reset extruder position

M203 Z5
G92 E0
G92 E0
G1 F2100 E-3
;LAYER_COUNT:90
;LAYER:0
M107
;MESH:X68KFDPi-Top_Print.stl
G0 F3600 X9.4 Y13.4 Z0.3
;TYPE:WALL-INNER
G1 F2100 E0
G1 F1320 X9.4 Y29.4 E0.75833
G1 X8.6 Y29.4 E0.79625
G1 X8.6 Y9.039 E1.76127
G1 X8.658 Y8.803 E1.77279
G1 X8.801 Y8.659 E1.78241
G1 X9.04 Y8.6 E1.79408
G1 X11.371 Y8.6 E1.90456
G1 X11.456 Y8.6 E1.90858
G1 X12 Y8.6 E1.93437
G1 X12.544 Y8.6 E1.96015
G1 X12.629 Y8.6 E1.96418
G1 X47.4 Y8.6 E3.61217
G1 X47.4 Y10.4 E3.69749
G1 X14.4 Y10.4 E5.26154
G1 X14.4 Y10.456 E5.2642
G1 X14.4 Y11 E5.28998
G1 X14.4 Y11.544 E5.31577
G1 X14.4 Y11.629 E5.31979
G1 X14.4 Y13.4 E5.40373
G1 X12.629 Y13.4 E5.48767
G1 X12.544 Y13.4 E5.4917
G1 X12 Y13.4 E5.51748
G1 X11.456 Y13.4 E5.54326
G1 X11.371 Y13.4 E5.54729
G1 X9.4 Y13.4 E5.64071
G0 F3600 X9.33 Y13.33
G0 X11.431 Y13.13
G0 X11.456 Y13.034
G1 F1320 X12 Y13.105 E5.66222
G1 X12.544 Y13.034 E5.68373
G1 X12.622 Y13.002 E5.68756
G1 X13.052 Y12.824 E5.70961
G1 X13.489 Y12.489 E5.73571
G1 X13.824 Y12.052 E5.76181
G1 X14.002 Y11.622 E5.78387
G1 X14.034 Y11.544 E5.78769
G1 X14.105 Y11 E5.8092
G1 X14.034 Y10.456 E5.83071
G1 X13.824 Y9.948 E5.85676
G1 X13.489 Y9.511 E5.88286
G1 X13.052 Y9.176 E5.90896
G1 X12.622 Y8.998 E5.93102
G1 X12.544 Y8.966 E5.93484
G1 X12 Y8.895 E5.95635
G1 X11.456 Y8.966 E5.97786
G1 X11.378 Y8.998 E5.98169
G1 X10.948 Y9.176 E6.00375
G1 X10.511 Y9.511 E6.02985
G1 X10.176 Y9.948 E6.05594
G1 X9.966 Y10.456 E6.082
G1 X9.895 Y11 E6.108
G1 X9.966 Y11.544 E6.134
G1 X10.176 Y12.052 E6.16005
G1 X10.511 Y12.489 E6.18615
G1 X10.948 Y12.824 E6.21225
G1 X11.378 Y13.002 E6.23431
G1 X11.456 Y13.034 E6.23813
G0 F3600 X11.56 Y12.644
;TYPE:WALL-OUTER
G1 F1320 X12 Y12.702 E6.25917
G1 X12.44 Y12.644 E6.2802
G1 X12.851 Y12.474 E6.30128
G1 X13.204 Y12.204 E6.32235
G1 X13.474 Y11.851 E6.34341
G1 X13.644 Y11.44 E6.36449
G1 X13.702 Y11 E6.38552
G1 X13.644 Y10.56 E6.40656
G1 X13.474 Y10.149 E6.42764
G1 X13.204 Y9.796 E6.4487
G1 X12.851 Y9.526 E6.46977
G1 X12.44 Y9.356 E6.49085
G1 X12 Y9.298 E6.51188
G1 X11.56 Y9.356 E6.53292
G1 X11.149 Y9.526 E6.554
G1 X10.796 Y9.796 E6.57506
G1 X10.526 Y10.149 E6.59612
G1 X10.356 Y10.56 E6.6172
G1 X10.298 Y11 E6.63824
G1 X10.356 Y11.44 E6.65927
G1 X10.526 Y11.851 E6.68035
G1 X10.796 Y12.204 E6.70142
G1 X11.149 Y12.474 E6.72248
G1 X11.56 Y12.644 E6.74356
G0 F3600 X11.758 Y12.67
G0 X11.694 Y13.165
G0 X9.372 Y13.372
G0 X9.8 Y13.8
G1 F1320 X9.8 Y29.8 E7.50189
G1 X8.2 Y29.8 E7.57772
G1 X8.2 Y9.009 E8.56313
G1 X8.229 Y8.791 E8.57355
G1 X8.309 Y8.601 E8.58332
G1 X8.439 Y8.433 E8.59339
G1 X8.602 Y8.308 E8.60313
G1 X8.797 Y8.228 E8.61312
G1 X9.011 Y8.2 E8.62334
G1 X47.8 Y8.2 E10.46178
G1 X47.8 Y10.8 E10.58501
G1 X14.8 Y10.8 E12.14906
G1 X14.8 Y13.8 E12.29125
G1 X9.8 Y13.8 E12.52823
G0 F3600 X9.8 Y14
G0 X9.3 Y14
G0 X9.372 Y13.372
G0 X10.548 Y13.01
;TYPE:SKIN
G1 F1320 X9.01 Y13.01 E12.60112
G1 X9.01 Y29.01 E13.35945
G1 X8.99 Y29.01 E13.3604
G1 X8.99 Y9.085 E14.30476
G1 X9.009 Y9.009 E14.30847
G1 X9.088 Y8.99 E14.31233
G1 X10.548 Y8.99 E14.38152
G1 X10.232 Y9.232 E14.40039
G1 X9.835 Y9.751 E14.43136
G1 X9.586 Y10.355 E14.46232
G1 X9.501 Y11 E14.49316
G1 X9.586 Y11.645 E14.52399
G1 X9.835 Y12.249 E14.55495
G1 X10.232 Y12.768 E14.58592
G1 X10.548 Y13.01 E14.60479
G0 F3600 X9.435 Y12.829
G1 F1320 X9.169 Y12.563 E14.62262
G0 F3600 X9.169 Y11.998
G1 F1320 X10.001 Y12.829 E14.67835
G1 X10.071 Y12.899
G0 F3600 X9.408 Y11.67
G1 F1320 X9.169 Y11.432 E14.69434
G0 F3600 X9.321 Y11.018
G1 F1320 X9.169 Y10.866 E14.70453
G0 F3600 X9.384 Y10.515
G1 F1320 X9.169 Y10.301 E14.7189
G0 F3600 X9.507 Y10.073
G1 F1320 X9.169 Y9.735 E14.74156
G0 F3600 X9.671 Y9.671
G1 F1320 X9.169 Y9.169 E14.77521
G0 F3600 X9.736 Y9.17
G1 F1320 X9.915 Y9.349 E14.7872
G0 F3600 X9.855 Y11
G0 X9.928 Y11.554
G0 X10.142 Y12.071
G0 X10.483 Y12.517
G0 X10.929 Y12.858
G0 X11.446 Y13.072
G0 X13.452 Y13.01
G1 F1320 X13.768 Y12.768 E14.80607
G1 X14.01 Y12.452 E14.82493
G1 X14.01 Y13.01 E14.85138
G1 X13.452 Y13.01 E14.87783
G0 F3600 X14.01 Y11.7
G0 X14.272 Y10.01
G1 F1320 X14.165 Y9.751 E14.89111
G1 X13.768 Y9.232 E14.92208
G1 X13.452 Y8.99 E14.94094
G1 X47.01 Y8.99 E16.53145
G1 X47.01 Y10.01 E16.57979
G1 X14.272 Y10.01 E18.13143
G0 F3600 X14.921 Y9.83
G1 F1320 X14.26 Y9.169 E18.17574
G0 F3600 X14.826 Y9.169
G1 F1320 X15.487 Y9.83 E18.22004
G0 F3600 X16.052 Y9.83
G1 F1320 X15.392 Y9.169 E18.26431
G0 F3600 X15.957 Y9.169
G1 F1320 X16.618 Y9.83 E18.30862
G0 F3600 X17.184 Y9.83
G1 F1320 X16.523 Y9.169 E18.35292
G0 F3600 X17.089 Y9.169
G1 F1320 X17.749 Y9.83 E18.3972
G0 F3600 X18.315 Y9.83
G1 F1320 X17.655 Y9.169 E18.44147
G0 F3600 X18.22 Y9.169
G1 F1320 X18.881 Y9.83 E18.48577
G0 F3600 X19.446 Y9.83
G1 F1320 X18.786 Y9.169 E18.53004
G0 F3600 X19.352 Y9.169
G1 F1320 X20.012 Y9.83 E18.57432
G0 F3600 X20.578 Y9.83
G1 F1320 X19.917 Y9.169 E18.61862
G0 F3600 X20.483 Y9.169
G1 F1320 X21.143 Y9.83 E18.66289
G0 F3600 X21.709 Y9.83
G1 F1320 X21.049 Y9.169 E18.70717
G0 F3600 X21.614 Y9.169
G1 F1320 X22.275 Y9.83 E18.75147
G0 F3600 X22.84 Y9.83
G1 F1320 X22.18 Y9.169 E18.79574
G0 F3600 X22.746 Y9.169
G1 F1320 X23.406 Y9.83 E18.84001
G0 F3600 X23.972 Y9.83
G1 F1320 X23.311 Y9.169 E18.88432
G0 F3600 X23.877 Y9.169
G1 F1320 X24.538 Y9.83 E18.92862
G0 F3600 X25.103 Y9.83
G1 F1320 X24.443 Y9.169 E18.9729
G0 F3600 X25.008 Y9.169
G1 F1320 X25.669 Y9.83 E19.0172
G0 F3600 X26.235 Y9.83
G1 F1320 X25.574 Y9.169 E19.06151
G0 F3600 X26.14 Y9.169
G1 F1320 X26.8 Y9.83 E19.10578
G0 F3600 X27.366 Y9.83
G1 F1320 X26.706 Y9.169 E19.15005
G0 F3600 X27.271 Y9.169
G1 F1320 X27.932 Y9.83 E19.19436
G0 F3600 X28.497 Y9.83
G1 F1320 X27.837 Y9.169 E19.23863
G0 F3600 X28.403 Y9.169
G1 F1320 X29.063 Y9.83 E19.2829
G0 F3600 X29.629 Y9.83
G1 F1320 X28.968 Y9.169 E19.3272
G0 F3600 X29.534 Y9.169
G1 F1320 X30.194 Y9.83 E19.37148
G0 F3600 X30.76 Y9.83
G1 F1320 X30.1 Y9.169 E19.41575
G0 F3600 X30.665 Y9.169
G1 F1320 X31.326 Y9.83 E19.46005
G0 F3600 X31.891 Y9.83
G1 F1320 X31.231 Y9.169 E19.50432
G0 F3600 X31.797 Y9.169
G1 F1320 X32.457 Y9.83 E19.5486
G0 F3600 X33.023 Y9.83
G1 F1320 X32.362 Y9.169 E19.5929
G0 F3600 X32.928 Y9.169
G1 F1320 X33.588 Y9.83 E19.63717
G0 F3600 X34.154 Y9.83
G1 F1320 X33.494 Y9.169 E19.68145
G0 F3600 X34.059 Y9.169
G1 F1320 X34.72 Y9.83 E19.72575
G0 F3600 X35.286 Y9.83
G1 F1320 X34.625 Y9.169 E19.77006
G0 F3600 X35.191 Y9.169
G1 F1320 X35.851 Y9.83 E19.81433
G0 F3600 X36.417 Y9.83
G1 F1320 X35.756 Y9.169 E19.85863
G0 F3600 X36.322 Y9.169
G1 F1320 X36.983 Y9.83 E19.90294
G0 F3600 X37.548 Y9.83
G1 F1320 X36.888 Y9.169 E19.94721
G0 F3600 X37.454 Y9.169
G1 F1320 X38.114 Y9.83 E19.99148
G0 F3600 X38.68 Y9.83
G1 F1320 X38.019 Y9.169 E20.03579
G0 F3600 X38.585 Y9.169
G1 F1320 X39.245 Y9.83 E20.08006
G0 F3600 X39.811 Y9.83
G1 F1320 X39.151 Y9.169 E20.12433
G0 F3600 X39.716 Y9.169
G1 F1320 X40.377 Y9.83 E20.16864
G0 F3600 X40.942 Y9.83
G1 F1320 X40.282 Y9.169 E20.21291
G0 F3600 X40.848 Y9.169
G1 F1320 X41.508 Y9.83 E20.25718
G0 F3600 X42.074 Y9.83
G1 F1320 X41.413 Y9.169 E20.30148
G0 F3600 X41.979 Y9.169
G1 F1320 X42.639 Y9.83 E20.34576
G0 F3600 X43.205 Y9.83
G1 F1320 X42.545 Y9.169 E20.39003
G0 F3600 X43.11 Y9.169
G1 F1320 X43.771 Y9.83 E20.43433
G0 F3600 X44.337 Y9.83
G1 F1320 X43.676 Y9.169 E20.47864
G0 F3600 X44.242 Y9.169
G1 F1320 X44.902 Y9.83 E20.52291
G0 F3600 X45.468 Y9.83
G1 F1320 X44.807 Y9.169 E20.56722
G0 F3600 X45.373 Y9.169
G1 F1320 X46.034 Y9.83 E20.61152
G0 F3600 X46.599 Y9.83
G1 F1320 X45.939 Y9.169 E20.65579
G0 F3600 X46.504 Y9.169
G1 F1320 X46.828 Y9.493 E20.67751
G1 F2100 E17.67751
G0 F3600 X47.38 Y10.33
G0 X48.665 Y10.33
G0 X74.335 Y10.33
G0 X75.62 Y10.33
G0 X81.67 Y10.33
G0 X81.6 Y10.4
;TYPE:WALL-INNER
G1 F2100 E20.67751
G1 F1320 X75.6 Y10.4 E20.96188
G1 X75.6 Y8.6 E21.0472
G1 X84.371 Y8.6 E21.4629
G1 X84.456 Y8.6 E21.46693
G1 X85 Y8.6 E21.49272
G1 X85.544 Y8.6 E21.5185
G1 X85.629 Y8.6 E21.52253
G1 X90.961 Y8.6 E21.77524
G1 X91.197 Y8.658 E21.78676
G1 X91.341 Y8.801 E21.79638
G1 X91.4 Y9.04 E21.80805
G1 X91.4 Y29.4 E22.77302
G1 X90.6 Y29.4 E22.81094
G1 X90.6 Y13.4 E23.56927
G1 X85.629 Y13.4 E23.80487
G1 X85.544 Y13.4 E23.8089
G1 X85 Y13.4 E23.83469
G1 X84.456 Y13.4 E23.86047
G1 X84.371 Y13.4 E23.8645
G1 X81.6 Y13.4 E23.99583
G1 X81.6 Y10.4 E24.13802
G0 F3600 X81.67 Y10.33
G0 X83.483 Y12.517
G0 X84.431 Y13.13
G0 X84.456 Y13.034
G1 F1320 X85 Y13.105 E24.15953
G1 X85.544 Y13.034 E24.18104
G1 X85.622 Y13.002 E24.18486
G1 X86.052 Y12.824 E24.20692
G1 X86.489 Y12.489 E24.23302
G1 X86.824 Y12.052 E24.25912
G1 X87.034 Y11.544 E24.28517
G1 X87.105 Y11 E24.31117
G1 X87.034 Y10.456 E24.33717
G1 X86.824 Y9.948 E24.36323
G1 X86.489 Y9.511 E24.38932
G1 X86.052 Y9.176 E24.41542
G1 X85.622 Y8.998 E24.43748
G1 X85.544 Y8.966 E24.44131
G1 X85 Y8.895 E24.46282
G1 X84.456 Y8.966 E24.48432
G1 X84.378 Y8.998 E24.48815
G1 X83.948 Y9.176 E24.51021
G1 X83.511 Y9.511 E24.53631
G1 X83.176 Y9.948 E24.5624
G1 X82.966 Y10.456 E24.58846
G1 X82.895 Y11 E24.61446
G1 X82.966 Y11.544 E24.64046
G1 X83.176 Y12.052 E24.66652
G1 X83.511 Y12.489 E24.69261
G1 X83.948 Y12.824 E24.71871
G1 X84.378 Y13.002 E24.74077
G1 X84.456 Y13.034 E24.7446
G0 F3600 X84.56 Y12.644
;TYPE:WALL-OUTER
G1 F1320 X85 Y12.702 E24.76563
G1 X85.44 Y12.644 E24.78666
G1 X85.851 Y12.474 E24.80774
G1 X86.204 Y12.204 E24.82881
G1 X86.474 Y11.851 E24.84987
G1 X86.644 Y11.44 E24.87095
G1 X86.702 Y11 E24.89199
G1 X86.644 Y10.56 E24.91302
G1 X86.474 Y10.149 E24.9341
G1 X86.204 Y9.796 E24.95516
G1 X85.851 Y9.526 E24.97623
G1 X85.44 Y9.356 E24.99731
G1 X85 Y9.298 E25.01834
G1 X84.56 Y9.356 E25.03938
G1 X84.149 Y9.526 E25.06046
G1 X83.796 Y9.796 E25.08152
G1 X83.526 Y10.149 E25.10259
G1 X83.356 Y10.56 E25.12367
G1 X83.298 Y11 E25.1447
G1 X83.356 Y11.44 E25.16573
G1 X83.526 Y11.851 E25.18681
G1 X83.796 Y12.204 E25.20788
G1 X84.149 Y12.474 E25.22894
G1 X84.56 Y12.644 E25.25002
G0 F3600 X84.758 Y12.67
G0 X84.694 Y13.165
G0 X83.929 Y12.858
G0 X83.483 Y12.517
G0 X81.628 Y10.372
G0 X81.2 Y10.8
G1 F1320 X75.2 Y10.8 E25.5344
G1 X75.2 Y8.2 E25.65762
G1 X90.991 Y8.2 E26.40605
G1 X91.209 Y8.229 E26.41647
G1 X91.399 Y8.309 E26.42624
G1 X91.567 Y8.439 E26.43631
G1 X91.692 Y8.602 E26.44605
G1 X91.772 Y8.797 E26.45604
G1 X91.8 Y9.011 E26.46627
G1 X91.8 Y29.8 E27.45158
G1 X90.2 Y29.8 E27.52741
G1 X90.2 Y13.8 E28.28574
G1 X81.2 Y13.8 E28.7123
G1 X81.2 Y10.8 E28.85449
G0 F3600 X81 Y10.8
G0 X81 Y10.3
G0 X81.99 Y10.01
;TYPE:SKIN
G1 F1320 X75.99 Y10.01 E29.13886
G1 X75.99 Y8.99 E29.18721
G1 X83.548 Y8.99 E29.54542
G1 X83.232 Y9.232 E29.56429
G1 X82.835 Y9.751 E29.59526
G1 X82.586 Y10.355 E29.62622
G1 X82.501 Y11 E29.65706
G1 X82.586 Y11.645 E29.68789
G1 X82.835 Y12.249 E29.71885
G1 X83.232 Y12.768 E29.74982
G1 X83.548 Y13.01 E29.76869
G1 X81.99 Y13.01 E29.84253
G1 X81.99 Y10.01 E29.98472
G0 F3600 X82.903 Y9.364
G1 F1320 X82.709 Y9.17 E29.99772
G0 F3600 X82.663 Y9.69
G1 F1320 X82.143 Y9.17 E30.03258
G0 F3600 X81.578 Y9.17
G1 F1320 X82.498 Y10.091 E30.09427
G0 F3600 X82.169 Y10.327
G1 F1320 X82.379 Y10.537 E30.10835
G0 F3600 X82.169 Y10.892
G1 F1320 X82.325 Y11.049 E30.11884
G0 F3600 X82.169 Y11.458
G1 F1320 X82.414 Y11.704 E30.1353
G0 F3600 X82.169 Y12.024
G1 F1320 X82.975 Y12.83 E30.18932
G0 F3600 X82.409 Y12.83
G1 F1320 X82.169 Y12.59 E30.20541
G0 F3600 X81.671 Y9.829
G1 F1320 X81.012 Y9.17 E30.24958
G0 F3600 X80.446 Y9.17
G1 F1320 X81.105 Y9.829 E30.29375
G0 F3600 X80.54 Y9.829
G1 F1320 X79.881 Y9.17 E30.33792
G0 F3600 X79.315 Y9.17
G1 F1320 X79.974 Y9.829 E30.38209
G0 F3600 X79.408 Y9.829
G1 F1320 X78.749 Y9.17 E30.42626
G0 F3600 X78.184 Y9.17
G1 F1320 X78.843 Y9.829 E30.47043
G0 F3600 X78.277 Y9.829
G1 F1320 X77.618 Y9.17 E30.51461
G0 F3600 X77.052 Y9.17
G1 F1320 X77.711 Y9.829 E30.55878
G0 F3600 X77.146 Y9.829
G1 F1320 X76.487 Y9.17 E30.60295
G0 F3600 X76.169 Y9.418
G1 F1320 X76.58 Y9.829 E30.6305
G0 F3600 X85 Y8.855
G0 X86.452 Y8.99
G1 F1320 X90.915 Y8.99 E30.84202
G1 X90.991 Y9.009 E30.84574
G1 X91.01 Y9.088 E30.84959
G1 X91.01 Y29.01 E31.7938
G1 X90.99 Y29.01 E31.79475
G1 X90.99 Y13.01 E32.55308
G1 X86.452 Y13.01 E32.76816
G1 X86.768 Y12.768 E32.78703
G1 X87.165 Y12.249 E32.818
G1 X87.414 Y11.645 E32.84896
G1 X87.499 Y11 E32.8798
G1 X87.414 Y10.355 E32.91063
G1 X87.165 Y9.751 E32.9416
G1 X86.768 Y9.232 E32.97257
G1 X86.452 Y8.99 E32.99143
G0 F3600 X87.072 Y10.446
G0 X87.186 Y12.516
G1 F1320 X87.5 Y12.829 E33.01244
G0 F3600 X88.065 Y12.829
G1 F1320 X87.396 Y12.16 E33.05729
G0 F3600 X87.561 Y11.759
G1 F1320 X88.631 Y12.829 E33.129
G0 F3600 X89.197 Y12.829
G1 F1320 X87.643 Y11.275 E33.23317
G0 F3600 X87.641 Y10.708
G1 F1320 X89.762 Y12.829 E33.37533
G0 F3600 X90.328 Y12.829
G1 F1320 X87.436 Y9.937 E33.56918
G0 F3600 X87.234 Y9.169
G1 F1320 X90.829 Y12.764 E33.81014
G0 F3600 X90.829 Y12.199
G1 F1320 X87.8 Y9.169 E34.0132
G0 F3600 X88.365 Y9.169
G1 F1320 X90.829 Y11.633 E34.17836
G0 F3600 X90.829 Y11.067
G1 F1320 X88.931 Y9.169 E34.30557
G0 F3600 X89.497 Y9.169
G1 F1320 X90.829 Y10.501 E34.39485
G0 F3600 X90.829 Y9.936
G1 F1320 X90.062 Y9.169 E34.44627
G0 F3600 X90.628 Y9.169
G1 F1320 X90.829 Y9.37 E34.45974
G1 F2100 E31.45974
G0 F3600 X90.67 Y29.38
G0 X90.67 Y30.665
G0 X90.67 Y82.335
G0 X90.67 Y83.62
G0 X90.67 Y106.67
G0 X90.6 Y106.6
;TYPE:WALL-INNER
G1 F2100 E34.45974
G1 F1320 X90.6 Y83.6 E35.54984
G1 X91.4 Y83.6 E35.58776
G1 X91.4 Y110.961 E36.88455
G1 X91.342 Y111.197 E36.89607
G1 X91.199 Y111.341 E36.90569
G1 X90.96 Y111.4 E36.91735
G1 X85.629 Y111.4 E37.17002
G1 X85.544 Y111.4 E37.17405
G1 X85 Y111.4 E37.19983
G1 X84.456 Y111.4 E37.22561
G1 X84.371 Y111.4 E37.22964
G1 X68.614 Y111.4 E37.97646
G1 X68.414 Y111.4 E37.98594
G1 X68.414 Y111.2 E37.99207
G1 X68.415 Y109.6 E38.06791
G1 X81.6 Y109.6 E38.69282
G1 X81.6 Y106.6 E38.83501
G1 X84.371 Y106.6 E38.96634
G1 X84.456 Y106.6 E38.97037
G1 X85 Y106.6 E38.99615
G1 X85.544 Y106.6 E39.02194
G1 X85.629 Y106.6 E39.02596
G1 X90.6 Y106.6 E39.26157
G0 F3600 X90.67 Y106.67
G0 X86.517 Y110.517
G0 X86.071 Y110.858
G0 X85.554 Y111.072
G0 X84.431 Y111.13
G0 X84.456 Y111.034
G1 F1320 X85 Y111.105 E39.28308
G1 X85.544 Y111.034 E39.30459
G1 X85.622 Y111.002 E39.30841
G1 X86.052 Y110.824 E39.33047
G1 X86.489 Y110.489 E39.35657
G1 X86.824 Y110.052 E39.38267
G1 X87.034 Y109.544 E39.40872
G1 X87.105 Y109 E39.43472
G1 X87.034 Y108.456 E39.46072
G1 X86.824 Y107.948 E39.48678
G1 X86.489 Y107.511 E39.51287
G1 X86.052 Y107.176 E39.53897
G1 X85.622 Y106.998 E39.56103
G1 X85.544 Y106.966 E39.56486
G1 X85 Y106.895 E39.58637
G1 X84.456 Y106.966 E39.60787
G1 X84.378 Y106.998 E39.6117
G1 X83.948 Y107.176 E39.63376
G1 X83.511 Y107.511 E39.65986
G1 X83.176 Y107.948 E39.68595
G1 X82.966 Y108.456 E39.71201
G1 X82.895 Y109 E39.73801
G1 X82.966 Y109.544 E39.76401
G1 X83.176 Y110.052 E39.79006
G1 X83.511 Y110.489 E39.81616
G1 X83.948 Y110.824 E39.84226
G1 X84.378 Y111.002 E39.86432
G1 X84.456 Y111.034 E39.86815
G0 F3600 X84.56 Y110.644
;TYPE:WALL-OUTER
G1 F1320 X85 Y110.702 E39.88918
G1 X85.44 Y110.644 E39.91021
G1 X85.851 Y110.474 E39.93129
